X:0
T:Tim Tam
C:Copyright 2010 Bliss McIntosh
K:G
L:1/8
M:6/8
|:"G" D2GB2G | "Am"E2A c2A | "Bm" G2B d2g | "C"f2e "D"d3 | 
"G"ded cBA | "Am" cdc BAG | "D" ABA DEF | "G" G3 G3 :| 
|:"G"g3f2e | d2cB3 | "C" d3c2B | "D"A2F D3 | 
"Em"g3f2e | "Bm"d2c B2c | "C"ded "D"cBA | "G" G3 G3 :|